X:204
T:Hound Dog Ramble
C:
N:Transcribed by David A Dugas Arr. For Mandolin By Mike Stangeland
R:bluegrass
L:1/8
Q:1/4=227
M:4/4
K:G
z6 Bc | "G"d2 B2 g2 Bc | d2 B2 g2 Bc | d2 g2 f2 e2 | "D"d2 c2 A2 AB | c2 A2 f2 AB | 
c2 A2 f2 AB | c2 f2 e2 d2 | "G"B2 G2 G2 Bc | dB cd g2 Bc | dB cd g2 Bc | d2 g2 f2 e2 | 
"D"d2 c2 A2 AB | cB AB dB AB | cB AB dB AB | cB Ac BA GF | "G"GE GG G2 EF | G,2 GD E2 DB, | 
G,2 GD E2 D2 | G,2 GD E2 E^D | "D"D2 A2 F2 B,C | D2 A2 F2 B,C | D2 A2 F2 B,C | 
D2 A2 F2 A2 | "G"GE DB, G,2 DE | G2 g2 ed cB | G2 gd e2 dB | G2 gf ed cB | "D"d2 a2 f2 Bc | 
d2 a2 f2 Bc | d2 a2 f2 Bc | d2 ag fe dB | "G"G8 | 


